images/skills/3-skills-backend-md1.svg

<?xml version="1.0" encoding="UTF-8" standalone="no"?>
<svg width="211px" height="163px" viewBox="0 0 211 163" version="1.1" xmlns="http://www.w3.org/2000/svg" xmlns:xlink="http://www.w3.org/1999/xlink" xmlns:sketch="http://www.bohemiancoding.com/sketch/ns">
    <!-- Generator: Sketch 3.2.2 (9983) - http://www.bohemiancoding.com/sketch -->
    <title>backend</title>
    <desc>Created with Sketch.</desc>
    <defs></defs>
    <g id="Medium" stroke="none" stroke-width="1" fill="none" fill-rule="evenodd" sketch:type="MSPage">
        <g id="Group" sketch:type="MSLayerGroup" fill="#FFFFFF">
            <g id="backend" sketch:type="MSShapeGroup">
                <path d="M123.676645,106.426462 L130.877774,113.791052 L138.957064,105.725311 L131.580605,98.5362585 C131.053607,97.8346062 130.877774,96.9579169 131.404771,96.2567662 C132.985764,93.45116 134.390421,87.8028338 134.917419,85.69888 C135.093252,84.9972277 135.795581,84.2584615 136.673743,84.2584615 L147.197619,84.2584615 L147.197619,76.7353846 L136.673743,76.7353846 C135.795581,76.7353846 135.093252,76.1505908 134.917419,75.2739015 C134.390421,73.3454862 132.985764,67.7929538 131.404771,64.9873477 C130.877774,64.2856954 131.053607,63.4385969 131.580605,62.7369446 L138.957064,55.5624369 L130.877774,47.5042185 L123.676645,54.87232 C122.974317,55.3984338 122.096155,55.5754769 121.393324,55.0493631 C118.934671,53.64656 114.22686,52.4202985 110.889543,51.5436092 C110.187214,51.3680708 109.519048,50.6679231 109.519048,49.7907323 L109.519048,39.6215385 L101.983333,39.6215385 L101.983333,49.7907323 C101.983333,50.6679231 101.325717,51.3690738 100.447555,51.5441108 C98.5153976,52.0702246 92.917869,53.4730277 90.10755,55.0513692 C89.4052214,55.5774831 88.5381119,55.4019446 87.835281,54.8758308 L80.640181,47.5117415 L72.5634024,55.5774831 L79.9418714,62.7660338 C80.4683667,63.4676862 80.6452048,64.3443754 80.1182071,65.0455262 C78.5372143,67.8511323 77.1325571,73.3454862 76.6055595,75.44944 C76.4302286,76.1505908 75.7279,76.7353846 74.8497381,76.7353846 L64.3047619,76.7353846 L64.3047619,84.2584615 L74.8497381,84.2584615 C75.7279,84.2584615 76.4302286,84.9972277 76.6060619,85.69888 C77.1330595,87.8028338 78.538219,93.4326031 80.1187095,96.2377077 C80.6457071,96.93936 80.4698738,97.8255785 79.9428762,98.5267292 L72.5664167,105.720295 L80.6457071,113.788545 L87.8468357,106.425458 C88.5491643,105.899345 89.4273262,105.724809 90.1301571,106.250422 C92.9404762,107.828763 98.5153976,109.231566 100.623388,109.75768 C101.325717,109.933218 101.983333,110.634871 101.983333,111.51156 L101.983333,121.873846 L109.519048,121.873846 L109.519048,111.51156 C109.519048,110.634871 110.187214,109.933218 110.889543,109.758182 C112.997533,109.232068 118.600588,107.829265 121.410907,106.251425 C122.113236,105.725311 122.974317,105.900348 123.676645,106.426462 L123.676645,106.426462 Z M105.76174,99.4129477 C95.3991286,99.4129477 86.9686738,90.9966308 86.9686738,80.6513969 C86.9686738,70.3061631 95.3991286,61.8893446 105.76174,61.8893446 C116.124352,61.8893446 124.554807,70.3061631 124.554807,80.6513969 C124.554807,90.9966308 116.124352,99.4129477 105.76174,99.4129477 L105.76174,99.4129477 Z" id="Fill-1"></path>
                <path d="M102.988095,156.563255 L40.444681,120.632037 C39.6659905,120.184163 39.1857143,119.355622 39.1857143,118.458369 L39.1857143,44.8505785 C39.1857143,43.9533262 39.6659905,43.1247846 40.444681,42.6769108 L102.988095,6.74569231 L102.988095,0 L0,0 L0,163 L102.988095,163 L102.988095,156.563255" id="Fill-2"></path>
                <path d="M105.76174,65.7471785 C97.5066167,65.7471785 90.8324857,72.4101169 90.8324857,80.6513969 C90.8324857,88.8921754 97.5066167,95.5551138 105.76174,95.5551138 C114.016864,95.5551138 120.690995,88.8921754 120.690995,80.6513969 C120.690995,72.4101169 114.016864,65.7471785 105.76174,65.7471785" id="Fill-3"></path>
                <path d="M108.011905,0 L108.011905,8.19614154 C108.011905,9.09339385 107.531629,9.92193538 106.752938,10.3698092 L44.2095238,46.3010277 L44.2095238,117.007418 L106.752938,152.939138 C107.531629,153.387012 108.011905,154.215554 108.011905,155.112806 L108.011905,163 L211,163 L211,0 L108.011905,0 L108.011905,0 Z M100.141605,125.384615 C99.0876095,125.384615 97.9642857,124.6624 97.9642857,123.610172 L97.9642857,112.914363 C95.452381,112.212711 91.9397333,111.336022 89.4805786,110.108757 L81.8137429,117.648385 C81.1114143,118.350037 79.912231,118.350037 79.2099024,117.648385 L68.687031,107.128114 C68.3358667,106.777037 68.167569,106.251425 68.167569,105.725311 C68.167569,105.199197 68.3474214,104.848622 68.6985857,104.498046 L76.2528881,96.8225015 C75.0235619,94.3679723 74.1469071,91.28 73.4445786,88.2707692 L62.7308024,88.2707692 C61.7441262,88.2707692 60.7880952,87.4226677 60.7880952,86.4612185 L60.7880952,74.8410738 C60.7880952,73.8801262 61.7441262,73.2246154 62.7308024,73.2246154 L73.4445786,73.2246154 C74.1469071,70.2153846 75.025069,67.0311169 76.2548976,64.5760862 L68.7021024,56.8328338 C67.9997738,56.1316831 67.9997738,54.8898738 68.7021024,54.1887231 L79.2405476,43.6609292 C79.9428762,42.9597785 81.1727048,42.9562677 81.8750333,43.6574185 L89.4805786,51.1955415 C91.9397333,49.9682769 95.452381,49.0895815 97.9642857,48.3884308 L97.9642857,37.69212 C97.9642857,36.6403938 99.0876095,35.6092308 100.141605,35.6092308 L111.382379,35.6092308 C112.435871,35.6092308 113.538095,36.6403938 113.538095,37.69212 L113.538095,48.3884308 C116.05,49.0895815 119.573198,49.9662708 122.032352,51.1935354 L129.704212,43.6539077 C130.407043,42.9527569 131.608236,42.9527569 132.311067,43.6539077 L142.835445,54.17468 C143.18661,54.5252554 143.354907,55.0513692 143.354907,55.5774831 C143.354907,56.1030954 143.17606,56.4541723 142.824895,56.8047477 L135.270593,64.5760862 C136.499919,67.0311169 137.376574,70.2153846 138.078902,73.2246154 L148.792679,73.2246154 C149.846674,73.2246154 150.714286,73.9879569 150.714286,75.0401846 L150.714286,86.2621077 C150.714286,87.3143354 149.846674,88.2707692 148.792679,88.2707692 L138.078902,88.2707692 C137.376574,91.28 136.498412,94.3679723 135.268583,96.8225015 L142.821379,104.517606 C143.523707,105.219258 143.523707,106.436492 142.821379,107.137643 L132.282933,117.6534 C131.580605,118.355052 130.350776,118.352545 129.648448,117.650892 L122.032352,110.10976 C119.573198,111.337526 116.05,112.212711 113.538095,112.914363 L113.538095,123.610172 C113.538095,124.6624 112.435871,125.384615 111.382379,125.384615 L100.141605,125.384615 L100.141605,125.384615 Z M171.814286,118.249729 C171.814286,119.145978 171.34054,119.97452 170.563357,120.421892 L121.060748,148.930843 L115.086936,152.363874 C114.718188,152.555462 114.324321,152.651757 113.932967,152.651757 C113.06435,152.651757 112.219345,152.201877 111.754643,151.396406 C111.061357,150.196726 111.474314,148.663523 112.675507,147.9714 L118.702571,144.497243 L166.790476,116.867991 L166.790476,46.2117538 L113.182912,15.3360431 C111.983226,14.6434185 111.573786,13.1112185 112.266569,11.91204 C112.959855,10.7128615 114.496136,10.3000954 115.698836,10.9932215 L170.562352,42.5911477 C171.339536,43.0390215 171.814286,43.8670615 171.814286,44.7633108 L171.814286,118.249729 L171.814286,118.249729 Z" id="Fill-4"></path>
            </g>
        </g>
    </g>
</svg>

<svg width="211" height="163" viewBox="0 0 211 163" xmlns="http://www.w3.org/2000/svg"><title>backend</title><desc>Created with Sketch.</desc><g fill="#fff"><path d="M123.677 106.426l7.2 7.365 8.08-8.065-7.376-7.19c-.526-.7-.702-1.577-.175-2.278 1.58-2.806 2.985-8.454 3.512-10.558.176-.703.88-1.442 1.757-1.442h10.524v-7.523h-10.524c-.878 0-1.58-.584-1.757-1.46-.527-1.93-1.93-7.482-3.512-10.288-.527-.7-.35-1.548.176-2.25l7.377-7.175-8.08-8.058-7.2 7.368c-.703.526-1.58.703-2.284.177-2.458-1.403-7.166-2.63-10.503-3.506-.703-.176-1.37-.876-1.37-1.753V39.623h-7.537v10.17c0 .876-.657 1.577-1.535 1.752-1.933.526-7.53 1.93-10.34 3.507-.703.527-1.57.352-2.273-.174l-7.195-7.364-8.077 8.065 7.38 7.19c.525.7.702 1.577.175 2.28-1.58 2.804-2.985 8.298-3.512 10.402-.176.7-.878 1.285-1.756 1.285H64.305v7.523H74.85c.878 0 1.58.74 1.756 1.44.527 2.105 1.932 7.735 3.513 10.54.526.7.35 1.588-.177 2.29l-7.377 7.192 8.08 8.07 7.2-7.365c.703-.526 1.58-.7 2.284-.175 2.81 1.58 8.385 2.982 10.493 3.508.703.175 1.36.877 1.36 1.754v10.362h7.536v-10.362c0-.877.667-1.58 1.37-1.754 2.108-.526 7.71-1.93 10.52-3.507.703-.525 1.564-.35 2.267.176zm-17.915-7.013c-10.363 0-18.793-8.416-18.793-18.762 0-10.344 8.43-18.76 18.792-18.76 10.362 0 18.793 8.416 18.793 18.76 0 10.347-8.43 18.763-18.793 18.763z"/><path d="M102.988 156.563l-62.543-35.93c-.78-.45-1.26-1.277-1.26-2.175V44.85c0-.897.48-1.725 1.26-2.173l62.543-35.93V0H0v163h102.988v-6.437"/><path d="M105.762 65.747c-8.255 0-14.93 6.663-14.93 14.904 0 8.242 6.675 14.905 14.93 14.905 8.255 0 14.93-6.663 14.93-14.904 0-8.24-6.675-14.903-14.93-14.903"/><path d="M108.012 0v8.196c0 .897-.48 1.726-1.26 2.174L44.21 46.3v70.707l62.543 35.932c.78.447 1.26 1.276 1.26 2.173V163H211V0H108.012zm-7.87 125.385c-1.054 0-2.178-.723-2.178-1.775v-10.696c-2.512-.7-6.024-1.578-8.483-2.805l-7.666 7.538c-.703.702-1.902.702-2.604 0l-10.523-10.52c-.35-.35-.52-.877-.52-1.403s.18-.876.532-1.227l7.553-7.675c-1.23-2.455-2.106-5.543-2.808-8.552H62.73c-.986 0-1.942-.847-1.942-1.81V74.84c0-.96.956-1.615 1.943-1.615h10.715c.702-3.01 1.58-6.194 2.81-8.65l-7.553-7.742c-.702-.7-.702-1.943 0-2.644l10.54-10.53c.7-.7 1.93-.704 2.633-.003l7.606 7.54c2.46-1.23 5.972-2.107 8.484-2.81V37.693c0-1.052 1.124-2.083 2.178-2.083h11.24c1.054 0 2.156 1.03 2.156 2.082v10.696c2.512.702 6.035 1.578 8.494 2.806l7.672-7.54c.703-.7 1.904-.7 2.607 0l10.525 10.52c.352.35.52.877.52 1.403s-.18.877-.53 1.228l-7.554 7.77c1.23 2.456 2.107 5.64 2.81 8.65h10.713c1.054 0 1.92.763 1.92 1.815v11.222c0 1.052-.866 2.01-1.92 2.01H138.08c-.703 3.008-1.582 6.096-2.81 8.55l7.55 7.696c.704.7.704 1.918 0 2.62l-10.537 10.515c-.702.702-1.932.7-2.635-.002l-7.616-7.54c-2.46 1.228-5.982 2.103-8.494 2.804v10.696c0 1.052-1.102 1.775-2.156 1.775h-11.24zm71.672-7.135c0 .896-.473 1.725-1.25 2.172l-49.503 28.51-5.973 3.432c-.37.19-.763.288-1.154.288-.87 0-1.714-.45-2.178-1.256-.694-1.2-.28-2.732.92-3.425l6.028-3.473 48.087-27.63V46.213l-53.607-30.876c-1.2-.693-1.61-2.225-.916-3.424.693-1.2 2.23-1.612 3.432-.92l54.862 31.6c.778.447 1.252 1.275 1.252 2.17v73.488z"/></g></svg>
